dist/svg/user-group-close.svg

<svg width="16" height="16" viewBox="0 0 16 16" fill="rgb(34, 34, 34)" xmlns="http://www.w3.org/2000/svg"><title>user-group-close</title><path d="M7.52601 1.30597C8.07301 0.510972 8.97801 -0.00402832 10.003 -0.00402832C11.658 -0.00402832 12.999 1.33797 12.999 2.99197C12.999 4.18097 12.306 5.20797 11.303 5.69297L11.285 5.70097V6.15897C12.335 6.44097 13.246 6.93397 14.011 7.59197L14.002 7.58397L11.999 9.58697L9.70601 7.29397L9.42801 7.02997C9.78701 6.44497 9.99901 5.73697 9.99901 4.97997C9.99901 3.32797 8.98801 1.91197 7.55201 1.31597L7.52601 1.30597ZM6.58601 8.99997C6.58601 8.99997 7.32301 8.16697 7.28601 8.15797V7.69997C8.30801 7.20697 9.00001 6.17897 9.00001 4.98897C9.00001 3.33197 7.65701 1.98897 6.00001 1.98897C4.34301 1.98897 3.00001 3.33197 3.00001 4.98897C3.00001 6.17897 3.69201 7.20697 4.69601 7.69197L4.71401 7.69997V8.15797C3.46001 8.49697 2.38501 9.13797 1.53201 9.99997L1.53101 10.001C0.548012 11.001 -1.53799 14.001 1.89501 14.001H7.58901L9.58501 12.001L6.58601 8.99997ZM14.986 13.986L13 12L16 8.99997L15 7.99997L12 11L9.00001 7.99997L8.00001 8.99997L11 12L8.00001 15L9.00001 16L12 13L15 16L16 15L15.834 14.834L14.986 13.986Z" fill="rgb(34, 34, 34)" fill-opacity="1.00"/></svg>

<!-- Generated by Trend Micro Style Portal -->
<svg version="1.1" xmlns="http://www.w3.org/2000/svg" width="16" height="16" viewBox="0 0 16 16">
  <title>user-group-close</title>
  <path fill="rgb(34,34,34)" d="M7.526 1.306c0.547-0.795 1.452-1.31 2.477-1.31 1.655 0 2.996 1.342 2.996 2.996 0 1.189-0.693 2.216-1.696 2.701l-0.018 0.008v0.458c1.050 0.282 1.961 0.775 2.726 1.433l-0.009-0.008-2.003 2.003-2.293-2.293-0.278-0.264c0.359-0.585 0.571-1.293 0.571-2.050 0-1.652-1.011-3.068-2.447-3.664l-0.026-0.010zM6.586 9s0.737-0.833 0.7-0.842v-0.458c1.022-0.493 1.714-1.521 1.714-2.711 0-1.657-1.343-3-3-3s-3 1.343-3 3c0 1.19 0.692 2.218 1.696 2.703l0.018 0.008v0.458c-1.254 0.339-2.329 0.98-3.182 1.842l-0.001 0.001c-0.983 1-3.069 4 0.364 4h5.694l1.996-2zM14.986 13.986l-1.986-1.986 3-3-1-1-3 3-3-3-1 1 3 3-3 3 1 1 3-3 3 3 1-1-0.166-0.166z"></path>
</svg>
